X: 1604
T: Joe Cashmere's Waltz Cotillion
B: australian traditional tunes wiki
M:3/4
L:1/8
R: Waltz
Q: 1/4=100
K:G
V:1 
D2|"G"G>d B>A B>c|"D7"d3 e dB|"G"G>d BA Bc|"D7"d4D2|A2G2g2|"D7"f4 (3fgf|A2f2(3gfe|"G" d4D2|
"G"G>d BA Bc|"D7"d4D2|"G"G>d BA Bc|"D7"d4g2|(3fgf e2d2|c2E2F2|"G"G3GG2|"G"G3GBd||
"G"b4b2|g4d2|"D"f4af|"Am"A4A2|"D"f2e2d2|c2B2A2|d3edc|"G"B4d2|
"G"b4b2|g4d2|"D"f4af|"Am"A4A2|(3fgfe2d2|c2E2F2|"G"G3GG2|G4Bd||
S"G"d3B ed|B4d2|"Em"g>eB2e2|"D"d3e dB|"D7"c3B ce|F2A2d2|fg fe dc|"G"B4GB|
d3B ed|B4d2|"Em"g2b2B2|"D"d2^c2=c2|"Am"a4g2|"D"f4fe|d2[c2e2][f2F2]|"Finish""G"g6||
"G"de dB dB|d2g2b2|"D"b2a2a2|"G"a2g2g2|de dB dB|d2g2b2|"D"b2a2a2|"G"g4g2|
"G"de dB dB|d2g2b2|"D"b2a2a2|"G"a2g2g2|de dB dB|d2g2b2|"D"b2a2a2|"G"g4Bc|
"G"d3B ed|B4d2|"Em"g2B2e2|"D"d3e dB|"C"c3B cA|"D"F2A2d2|f3e dc|"G"B4B2|
"G"d3B ed|B4d2|"Em"g2b2B2|"D"d2^c2=c2|"Am"a3a ag|"D"f3f fe|d2c2F2"G"|SG4||
% abcbook-tune_id 6342d53aa7ef88aed545b1eb


% abcbook-boost 0
% abcbook-tablature 
% abcbook-transpose 
% abcbook-lastupdated 1665324373472
% abcbook-soundfonts 
% abcbook-repeats 1
% NFF Book 2020
% Bush Traditions recording played by Harvest Moon Band

